pages/svg/search.svg

<svg width="17" height="17" viewBox="0 0 17 17" fill="none" xmlns="http://www.w3.org/2000/svg">
	<path d="M15.823 15.3474L15.8228 15.3473L11.7811 11.144C12.7992 10.0396 13.4228 8.56499 13.4228 6.94721C13.4228 3.52968 10.6432 0.75 7.22562 0.75C3.80809 0.75 1.02841 3.52968 1.02841 6.94721C1.02841 10.3647 3.80809 13.1444 7.22562 13.1444C8.64235 13.1444 9.94927 12.666 10.9937 11.8636L15.0536 16.0858L15.2343 15.9131L15.054 16.0863L15.0538 16.0861C15.1589 16.1958 15.2994 16.25 15.4384 16.25C15.5715 16.25 15.7047 16.2002 15.8077 16.1014L15.808 16.1011C16.0203 15.8969 16.0266 15.5596 15.823 15.3474ZM7.22562 12.078C4.3966 12.078 2.09481 9.77623 2.09481 6.94721C2.09481 4.11819 4.3966 1.8164 7.22562 1.8164C10.0546 1.8164 12.3564 4.11819 12.3564 6.94721C12.3564 9.77622 10.0544 12.078 7.22562 12.078Z" fill="#677387" stroke="#677387" stroke-width="0.5"/>
</svg>

<svg width="17" height="17" viewBox="0 0 17 17" fill="none" xmlns="http://www.w3.org/2000/svg">
    <path d="M15.823 15.347l-4.042-4.203a6.174 6.174 0 001.642-4.197A6.204 6.204 0 007.226.75a6.204 6.204 0 00-6.198 6.197 6.204 6.204 0 006.198 6.197 6.166 6.166 0 003.768-1.28l4.06 4.222.18-.173-.18.173a.531.531 0 00.754.015.533.533 0 00.015-.754zm-8.597-3.269a5.137 5.137 0 01-5.131-5.13 5.137 5.137 0 015.13-5.132 5.137 5.137 0 015.131 5.131 5.137 5.137 0 01-5.13 5.131z"/>
</svg>
